icons/circle-chevron-up-outline.svg

<svg xmlns="http://www.w3.org/2000/svg" width="24" height="24" viewBox="0 0 24 24">
  <path d="M12,1 C18.0751322,1 23,5.92486775 23,12 C23,18.0751322 18.0751322,23 12,23 C5.92486775,23 1,18.0751322 1,12 C1,5.92486775 5.92486775,1 12,1 Z M12,3 C7.02943725,3 3,7.02943725 3,12 C3,16.9705627 7.02943725,21 12,21 C16.9705627,21 21,16.9705627 21,12 C21,7.02943725 16.9705627,3 12,3 Z M12.6128994,9.20970461 L12.7071068,9.29289322 L16.7071068,13.2928932 C17.0976311,13.6834175 17.0976311,14.3165825 16.7071068,14.7071068 C16.3466228,15.0675907 15.7793918,15.0953203 15.3871006,14.7902954 L15.2928932,14.7071068 L12,11.415 L8.70710678,14.7071068 C8.34662282,15.0675907 7.77939176,15.0953203 7.38710056,14.7902954 L7.29289322,14.7071068 C6.93240926,14.3466228 6.90467972,13.7793918 7.20970461,13.3871006 L7.29289322,13.2928932 L11.2928932,9.29289322 C11.6533772,8.93240926 12.2206082,8.90467972 12.6128994,9.20970461 Z"/>
</svg>

<svg xmlns="http://www.w3.org/2000/svg" viewBox="0 0 24 24">
  <path d="M12 1a11 11 0 1 1 0 22 11 11 0 0 1 0-22zm0 2a9 9 0 1 0 0 18 9 9 0 0 0 0-18zm.61 6.21.1.08 4 4a1 1 0 0 1-1.32 1.5l-.1-.08L12 11.4l-3.3 3.3a1 1 0 0 1-1.31.08l-.1-.08a1 1 0 0 1-.08-1.32l.08-.1 4-4a1 1 0 0 1 1.32-.08z"/>
</svg>
